X:52
T: Der Ackermann, S. 16
N: L0013
O: Luxemburg
S: Die Luxemburger Volkslieder lterer Zeit, Luxemburg 1904 posth.]
R: geistliches, religises Lied]
M: 3/4
L: 1/4
K: G
G | ddd | _edc | d2c | _B2
B | c2d | _edc | _BGA | G2z |
c3 | _BAG | =F3- | F2z |
c_Bc | d2c | _BGA | G2z

@@@ Tune index: 8106
